!!!COM:	Busnoys, Antoine
!!!CDT:	~1430///-1492/11/06
!!!OTL:	Le monde est tel
!!!AGN:	Song; Chanson
!!!SCT:	Bus3037
!!!SCA:	Bus3037
!!!voices:	3
**kern	**kern	**kern
*staff3	*staff2	*staff1
*Ivox	*Ivox	*Ivox
*I"Contra	*I"Tenor	*I"Superius
*I'C	*I'T	*I'S
*clefGv2	*clefG2	*clefG2
*k[]	*k[]	*k[]
*M2/1	*M2/1	*M2/1
*met(C|)	*met(C|)	*met(C|)
=1-	=1-	=1-
!	!	!LO:TX:Z=32:t=Rondeau?
0D	0r	0r
=2	=2	=2
1F	0r	0r
1F	.	.
=3	=3	=3
1.G	0d	0r
2F	.	.
=4	=4	=4
0D	1f	0r
.	1f	.
=5	=5	=5
1r	1.g	0r
1E	.	.
.	2f	.
=6	=6	=6
1F	0d	0r
1G	.	.
=7	=7	=7
2A	1r	0r
2.c	.	.
.	1e	.
4B	.	.
2c	.	.
=8	=8	=8
4d	1f	0r
4c	.	.
4B	.	.
4A	.	.
1B	1g	.
=9	=9	=9
1A	1.a	0a
1D	.	.
.	[2f	.
=10	=10	=10
0A	2f]	1cc
.	4e	.
.	4d	.
.	1e	1cc
=11	=11	=11
0D	1.d	1.dd
.	[2f	2cc
=12	=12	=12
1r	4f]	0a
.	4e	.
.	2c	.
1D	2.d	.
.	4c	.
=13	=13	=13
1F	1A	1r
1G	1r	1b
=14	=14	=14
1A	1a	1cc
1B	2f	1dd
.	[2g	.
=15	=15	=15
1c	2g]	1ee
.	2e	.
1d	2f	2dd
.	2d	2ff
=16	=16	=16
1A	2c	2ee
.	1cc	1aa
2c	.	.
2d	4b	4gg
.	4a	4ff
=17	=17	=17
1G	4b	4gg
.	4a	4ff
.	4g	4ee
.	4f	4dd
1A	1e	2.cc#i
.	.	4b
=18	=18	=18
2F	2d	0dd
2D	2.f	.
2F	.	.
.	4e	.
2G	[2d	.
=19	=19	=19
1E	2d]	0r
.	2c#i	.
2D	2d	.
[2A	2f	.
=20	=20	=20
4A]	2e	[0ee
4B	.	.
2.c	1a	.
4d	.	.
[2e	2g	.
=21	=21	=21
4e]	2a	1ee]
4d	.	.
1d	4g	.
.	4f	.
.	1e	1ee
2c#i	.	.
=22	=22	=22
2d	1d	1.ff
2.B	.	.
.	1r	.
4c	.	.
2d	.	2ee
=23	=23	=23
2A	[0e	0cc
1c	.	.
[2A	.	.
=24	=24	=24
2A]	0e]	1cc
4G	.	.
4F	.	.
1E	.	1cc
=25	=25	=25
0D	1.f	1.dd
.	4e	2cc
.	4d	.
=26	=26	=26
0A	[0c	1ee
.	.	2a
.	.	[2ee
=27	=27	=27
0E	1c]	4ee]
.	.	4ff
.	.	1gg
.	1c	.
.	.	2ee
=28	=28	=28
0D	1.d	1.ff
.	2c	2ee
=29	=29	=29
0C	1e	0cc
.	2A	.
.	[2e	.
=30	=30	=30
0r	4e]	1b
.	4f	.
.	1g	.
.	.	1b
.	2e	.
=31	=31	=31
1r	1.f	1.a
1D	.	.
.	2e	2g
=32	=32	=32
0AN	0cN	0eN
=33	=33	=33
1D	0r	1f
2E	.	2g
[2F	.	[2a
=34	=34	=34
2F]	0r	2a]
4E	.	4g
4D	.	4f
2F	.	2a
[2E	.	[2g
=35	=35	=35
4E]	0r	4g]
4D	.	4f
4C#i	.	4e
4BB	.	4d
1C#i	.	1e
=36	=36	=36
1D	0a	0d
[1F	.	.
=37	=37	=37
2F]	1g	0r
4E	.	.
4D	.	.
1E	1g	.
=38	=38	=38
2F	0f	0a
1D	.	.
[2F	.	.
=39	=39	=39
2F]	0b-i	1g
2E	.	.
2.E	.	1g
4D	.	.
=40	=40	=40
2.F	2.a	1f
4G	4b-i	.
2A	2cc	1f
[2B-i	[2dd	.
=41	=41	=41
4B-]	4dd]	0b-i
4A	4cc	.
4G	4b-i	.
4F	4a	.
2.E	1g	.
4D	.	.
=42	=42	=42
1F	1a	2.a
.	.	4f
1r	2b-i	2g
.	[2cc	2a
=43	=43	=43
0r	2cc]	2f
.	2a	2cc
.	2b-i	2dd
.	[2cc	2ee
=44	=44	=44
1F	2cc]	2dd
.	2a	1ff
1c	1g	.
.	.	2ee
=45	=45	=45
2A	2f	1ff
2B-i	1f	.
1G	.	1gg
.	2e	.
=46	=46	=46
2F	2f	1aa
2A	2r	.
2B-i	1g	2gg
[2c	.	[2ee
=47	=47	=47
2c]	1a	2ee]
2d	.	2ff
2e	2g	1gg
[2c	[2e	.
=48	=48	=48
2c]	2e]	1cc
2A	2f	.
1G	1g	1r
=49	=49	=49
1r	1c	1ee
2D	1r	1ff
2F	.	.
=50	=50	=50
2G	1e	2ee
1A	.	1cc
.	1f	.
2B	.	2dd
=51	=51	=51
2c	2e	1ee
1A	1c	.
.	.	1a
2F	2d	.
=52	=52	=52
1E	1e	1r
1r	1A	1cc
=53	=53	=53
1r	1r	2dd
.	.	1ee
2C	1c	.
2E	.	2gg
=54	=54	=54
2D	2d	2ff
2C	1e	2ee
1E	.	2.gg
.	2g	.
.	.	4ff
=55	=55	=55
2r	2f	2dd
2E	2e	1ee
1E	2.g	.
.	.	4dd
.	4f	4cc
=56	=56	=56
2r	2d	2b
2E	1e	1cc
1E	.	.
.	4d	4b
.	4c	4a
=57	=57	=57
2r	1B	2.g#i
2E	.	.
.	.	4f#i
2F	2A	2a
2A	[2e	2cc
=58	=58	=58
2G	4e]	2b
.	4f	.
2E	2g	2.ee
2r	2a	.
.	.	4dd
[2A	[2e	4cc
.	.	4b
=59	=59	=59
2A]	4e]	2cc
.	4c	.
2D	2d	1a
1E	1B	.
.	.	2g#i
=60	=60	=60
0AAl	0Al	0al
==	==	==
*-	*-	*-
!!!RDF**kern: l=long note in original notation
!!!RDF**kern: i=editorial accidental
!!!ENC:	Chris Gage 04-13-2015
!!!END:	2015/05/05/
!!!EED:	Jesse Rodin
!!!EEV:	2015/09/21/
!!!ONB:	Translated from MusicXML and edited on 2015/09/21/ by Craig Sapp
!!muse2ps: C^@{COM}^i2I150v95,95,150Q16
